assets/stlite/build/static/media/logo.83ae4f2fb87e38be7cbb8a5d2beb64d2.svg

<svg fill="none" height="24" viewBox="0 0 43 24" width="43" xmlns="http://www.w3.org/2000/svg"><path d="m21.3306 14.7705-7.4797-4.0437-12.983739-7.01817c-.011852-.01212-.035555-.01212-.047406-.01212-.474076-.2303-.960003.25454-.7822248.7394l6.6157198 17.25699.00119.0037c.00711.0169.01303.0339.02015.0509.2714.6436.864 1.0412 1.50874 1.1976.05452.0121.09352.0231.15898.0364.06515.0148.15628.0351.2345.0411.01304.0012.02489.0012.03793.0025h.00948c.00948.0012.01896.0012.02845.0024h.01303c.0083.0012.01778.0012.02608.0012h.0154c.00949.0012.01897.0012.02845.0012 8.37747.9341 16.83267.9341 25.21017 0 .1007 0 .1991-.0048.2939-.0145.0308-.0037.0604-.0073.0901-.011.0035-.0012.0083-.0012.0118-.0024.0202-.0024.0403-.006.0605-.0097.0296-.0036.0592-.0097.0889-.0157.0592-.0134.0862-.0231.1666-.0513.0804-.0283.2139-.0777.2975-.1189.0835-.0413.1415-.0807.2114-.1256.0865-.0557.1688-.1128.2522-.1768.036-.0282.0607-.0462.0868-.0717l-.0142-.0085z" fill="#ff2b2b"/><path d="m41.8158 3.70881h-.0118l-12.9886 7.01819 7.2202 10.9976 6.5992-17.28852v-.02424c.1659-.50909-.3437-.9697-.819-.70303z" fill="#7d353b"/><path d="m22.0227.371706c-.3318-.495759-1.0548-.495759-1.3748 0l-6.7971 10.355194 7.4798 4.0437 14.1748 7.6617c.089-.0892.1604-.176.2359-.2678.1067-.1345.2062-.2788.2939-.44l-7.2202-10.9976z" fill="#bd4043"/></svg>

<svg width="43" height="24" viewBox="0 0 43 24" fill="none" xmlns="http://www.w3.org/2000/svg">
<path d="M21.3306 14.7705L13.8509 10.7268L0.867161 3.70863C0.855309 3.69651 0.831606 3.69651 0.819755 3.69651C0.345679 3.46621 -0.140248 3.95105 0.0375302 4.43591L6.65325 21.6929L6.65444 21.6966C6.66155 21.7135 6.66747 21.7305 6.67459 21.7475C6.94599 22.3911 7.53859 22.7887 8.18333 22.9451C8.23785 22.9572 8.27685 22.9682 8.34231 22.9815C8.40746 22.9963 8.49859 23.0166 8.57681 23.0226C8.58985 23.0238 8.6017 23.0238 8.61474 23.0251H8.62422C8.6337 23.0263 8.64318 23.0263 8.65267 23.0275H8.6657C8.674 23.0287 8.68348 23.0287 8.69178 23.0287H8.70718C8.71667 23.0299 8.72615 23.0299 8.73563 23.0299C17.1131 23.964 25.5683 23.964 33.9458 23.0299C34.0465 23.0299 34.1449 23.0251 34.2397 23.0154C34.2705 23.0117 34.3001 23.0081 34.3298 23.0044C34.3333 23.0032 34.3381 23.0032 34.3416 23.002C34.3618 22.9996 34.3819 22.996 34.4021 22.9923C34.4317 22.9887 34.4613 22.9826 34.491 22.9766C34.5502 22.9632 34.5772 22.9535 34.6576 22.9253C34.738 22.897 34.8715 22.8476 34.9551 22.8064C35.0386 22.7651 35.0966 22.7257 35.1665 22.6808C35.253 22.6251 35.3353 22.568 35.4187 22.504C35.4547 22.4758 35.4794 22.4578 35.5055 22.4323L35.4913 22.4238L21.3306 14.7705Z" fill="#FF2B2B"/>
<path d="M41.8158 3.70881H41.804L28.8154 10.727L36.0356 21.7246L42.6348 4.43608V4.41184C42.8007 3.90275 42.2911 3.44214 41.8158 3.70881Z" fill="#7D353B"/>
<path d="M22.0227 0.371706C21.6909 -0.124053 20.9679 -0.124053 20.6479 0.371706L13.8508 10.7269L21.3306 14.7706L35.5054 22.4323C35.5944 22.3431 35.6658 22.2563 35.7413 22.1645C35.848 22.03 35.9475 21.8857 36.0352 21.7245L28.815 10.7269L22.0227 0.371706Z" fill="#BD4043"/>
</svg>
